briefcase-eye.svg

<svg fill="currentColor" viewBox="0 0 24 24"><path d="M17 18c.6 0 1 .4 1 1s-.4 1-1 1-1-.4-1-1 .4-1 1-1m-7.9 1.7-.3-.7.3-.7c1.3-3.2 4.4-5.3 7.9-5.3 1.9 0 3.6.6 5 1.6V8c0-1.1-.9-2-2-2h-4V4c0-1.1-.9-2-2-2h-4c-1.1 0-2 .9-2 2v2H4c-1.1 0-2 .9-2 2v11c0 1.1.9 2 2 2h5.8c-.3-.4-.5-.8-.7-1.3M10 4h4v2h-4zm7 11c-2.7 0-5.1 1.7-6 4 .9 2.3 3.3 4 6 4s5.1-1.7 6-4c-.9-2.3-3.3-4-6-4m0 6.5c-1.4 0-2.5-1.1-2.5-2.5s1.1-2.5 2.5-2.5 2.5 1.1 2.5 2.5-1.1 2.5-2.5 2.5"/></svg>

<svg  viewBox="0 0 24 24" fill="currentColor"><path  d="M17 18C17.6 18 18 18.4 18 19S17.6 20 17 20 16 19.6 16 19 16.4 18 17 18M9.1 19.7L8.8 19L9.1 18.3C10.4 15.1 13.5 13 17 13C18.9 13 20.6 13.6 22 14.6V8C22 6.9 21.1 6 20 6H16V4C16 2.9 15.1 2 14 2H10C8.9 2 8 2.9 8 4V6H4C2.9 6 2 6.9 2 8V19C2 20.1 2.9 21 4 21H9.8C9.5 20.6 9.3 20.2 9.1 19.7M10 4H14V6H10V4M17 15C14.3 15 11.9 16.7 11 19C11.9 21.3 14.3 23 17 23S22.1 21.3 23 19C22.1 16.7 19.7 15 17 15M17 21.5C15.6 21.5 14.5 20.4 14.5 19S15.6 16.5 17 16.5 19.5 17.6 19.5 19 18.4 21.5 17 21.5Z"/></svg>
